images/icons/tiktok.svg

<svg width="19" height="22" viewBox="0 0 19 22" fill="none" xmlns="http://www.w3.org/2000/svg">
<path d="M16.3203 4.99049C16.1787 4.9171 16.0408 4.83666 15.9073 4.74949C15.5185 4.49311 15.162 4.19095 14.8453 3.84949C14.2231 3.15433 13.8075 2.2992 13.6453 1.38049C13.5866 1.09104 13.5705 0.794596 13.5973 0.500488H9.99928V14.4455C9.99928 14.6325 9.99928 14.8175 9.99128 15.0005C9.99128 15.0235 9.99128 15.0445 9.99128 15.0685C9.99235 15.0788 9.99235 15.0892 9.99128 15.0995V15.1075C9.95333 15.608 9.79294 16.0914 9.52423 16.5153C9.25551 16.9393 8.88671 17.2906 8.45028 17.5385C7.99564 17.7972 7.4814 17.933 6.95828 17.9325C6.14606 17.9325 5.3671 17.6098 4.79277 17.0355C4.21844 16.4612 3.89578 15.6822 3.89578 14.87C3.89578 14.0578 4.21844 13.2788 4.79277 12.7045C5.3671 12.1301 6.14606 11.8075 6.95828 11.8075C7.27647 11.8071 7.59272 11.857 7.89528 11.9555V8.28349C6.97723 8.16493 6.04457 8.2379 5.15612 8.49779C4.26767 8.75768 3.44272 9.19886 2.73328 9.79349C2.11216 10.3323 1.58968 10.9753 1.18928 11.6935C0.683377 12.6243 0.408982 13.6632 0.389285 14.7225C0.381008 15.5367 0.511888 16.3464 0.776283 17.1165V17.1255C1.01443 17.7651 1.34421 18.3667 1.75528 18.9115C2.20074 19.4769 2.72706 19.9735 3.31728 20.3855V20.3765L3.32628 20.3855C4.41982 21.1064 5.69952 21.4935 7.00928 21.4995C7.95264 21.4995 8.88477 21.2948 9.74128 20.8995C10.5869 20.5006 11.3421 19.933 11.9603 19.2315C12.4744 18.6353 12.8833 17.9559 13.1693 17.2225C13.4333 16.4832 13.5801 15.7071 13.6043 14.9225V7.52249C13.6483 7.54849 14.2303 7.93449 14.2303 7.93449C14.9016 8.32972 15.625 8.62896 16.3793 8.82349C17.1041 8.98955 17.8424 9.08996 18.5853 9.12349V5.54349C17.7957 5.55332 17.0165 5.36307 16.3203 4.99049Z" fill="#005CFF"/>
</svg>

<svg version="1.2" xmlns="http://www.w3.org/2000/svg" viewBox="0 0 19 22" width="19" height="22"><style>.a{fill:#3cd3ff}</style><path class="a" d="m16.3 5q-0.2-0.1-0.4-0.3-0.6-0.3-1.1-0.9c-0.6-0.6-1-1.5-1.2-2.4q0-0.5 0-0.9h-3.6v13.9q0 0.3 0 0.6 0 0 0 0.1 0 0 0 0-0.1 0.8-0.5 1.4-0.4 0.7-1 1-0.7 0.4-1.5 0.4c-0.9 0-1.6-0.3-2.2-0.9-0.6-0.5-0.9-1.3-0.9-2.1 0-0.8 0.3-1.6 0.9-2.2 0.6-0.6 1.3-0.9 2.2-0.9q0.4 0 0.9 0.2v-3.7q-1.4-0.2-2.7 0.2-1.4 0.4-2.5 1.3-0.9 0.8-1.5 1.9c-0.5 0.9-0.8 2-0.8 3q0 1.3 0.4 2.4 0.3 1 1 1.8 0.6 0.9 1.5 1.5c1.1 0.7 2.4 1.1 3.7 1.1 1 0 1.9-0.2 2.7-0.6q1.3-0.6 2.3-1.7 0.7-0.9 1.2-2 0.4-1.1 0.4-2.3v-7.4c0 0 0.6 0.4 0.6 0.4q1 0.6 2.2 0.9 1.1 0.3 2.2 0.3v-3.6c-0.8 0.1-1.6-0.1-2.3-0.5z"/></svg>
